X:1
T:Only a Miner
M:3/4
L:1/4
K:C
 z2 D| B2 ^A/2B/2| A/2 G3/2 G| A G E| D2 z| G/2 G3/2 G| B/2 d3/2 B|\
 B A G| A3/2 z/2(3B3.99999962500005/11.9999985000002B3.99999962500005/11.9999985000002c3.99999962500005/11.9999985000002B3.99999962500005/11.9999985000002c3.99999962500005/11.9999985000002d3.99999962500005/11.9999985000002|\
 d/2 d3/2 B| A/2 G3/2 G| A/2 G3/2 E| D3/2 z/2 D/2 D/2-| D E G| B/2 B3/2 G/2G/2|\
 A B A| G3/2 z/2 D| B3/2 ^A/2 B| A/2 G3/2 G| A G E| D2 z| G3/2 G/2 G|\
 B/2 d3/2 B| B A G| A2 z| B2 B/2B/2| A/2A/2 G2| A G E| D3/2 z/2 D|\
 D E G| B/2 B3/2 G| A/2 B3/2 A| G3/2 z/2 z|
